svg/edit-03.svg

<svg width="24" height="24" viewBox="0 0 24 24" fill="none" xmlns="http://www.w3.org/2000/svg">
<rect width="24" height="24" fill="#F5F5F5"/>
<rect width="793" height="822" transform="translate(-288.667 -537.875)" fill="white"/>
<path fill-rule="evenodd" clip-rule="evenodd" d="M13.8787 3.70705C15.0503 2.53548 16.9497 2.53547 18.1213 3.70705L20.2929 5.87862C21.4645 7.0502 21.4645 8.94969 20.2929 10.1213L9.70711 20.707C9.51957 20.8946 9.26522 20.9999 9 20.9999H4C3.44772 20.9999 3 20.5522 3 19.9999V14.9999C3 14.7347 3.10536 14.4804 3.29289 14.2928L13.8787 3.70705ZM16.7071 5.12126C16.3166 4.73074 15.6834 4.73074 15.2929 5.12126L14.4142 5.99994L18 9.58573L18.8787 8.70705C19.2692 8.31652 19.2692 7.68336 18.8787 7.29284L16.7071 5.12126ZM16.5858 10.9999L13 7.41416L5 15.4142V18.9999H8.58579L16.5858 10.9999Z" fill="#D4D4D4"/>
</svg>

<svg fill="none" viewBox="0 0 24 24"><path fill="#F5F5F5" d="M0 0h24v24H0z"/><path fill="white" d="M-288.667-537.875h793v822h-793z"/><path fill="#D4D4D4" d="M13.879 3.707a3 3 0 0 1 4.242 0l2.172 2.172a3 3 0 0 1 0 4.242L9.707 20.707A1 1 0 0 1 9 21H4a1 1 0 0 1-1-1v-5a1 1 0 0 1 .293-.707zm2.828 1.414a1 1 0 0 0-1.414 0L14.414 6 18 9.586l.879-.879a1 1 0 0 0 0-1.414zM16.586 11 13 7.414l-8 8V19h3.586z"/></svg>
